Misc/SVGs/Settings/S12_2GamesLibrary.svg

<svg name="Library" class="linkButtonIcon-Mlm5d6 da-linkButtonIcon" width="24" height="24" viewBox="0 0 24 24"><g fill="none" fill-rule="evenodd" class=""><path fill="currentColor" d="M17,13.6 L17.3999992,13.6 C19.0406735,13.6 20.496781,12.8097754 21.4084757,11.5891722 L21.8198761,18.8298199 C21.913864,20.4840062 20.6490733,21.9011814 18.994887,21.9951692 C18.9382174,21.9983891 18.8814679,22 18.8247069,22 L5.1752931,22 C3.51843885,22 2.1752931,20.6568542 2.1752931,19 C2.1752931,18.943239 2.17690401,18.8864895 2.18012387,18.8298199 L2.59152425,11.5891732 C3.503219,12.8097758 4.95932613,13.6 6.6,13.6 L7,13.6 L7,15 L9,15 L9,13.6 L15,13.6 L15,15 L17,15 L17,13.6 Z M7,16 L7,18 L9,18 L9,16 L7,16 Z M15,16 L17,16 L17,18 L15,18 L15,16 Z M15,11.6 L9,11.6 L9,9 L7,9 L7,11.6 L6.6,11.6 C4.94314575,11.6 3.6,10.2568542 3.6,8.6 L3.6,5 C3.6,3.34314575 4.94314575,2 6.6,2 L17.3999992,2 C19.0568535,2 20.3999992,3.34314575 20.3999992,5 L20.3999992,8.6 C20.3999992,10.2568542 19.0568535,11.6 17.3999992,11.6 L17,11.6 L17,9 L15,9 L15,11.6 Z" class=""></path></g></svg>

<?xml version="1.0" encoding="utf-8"?>
<svg version="1.1"
    xmlns="http://www.w3.org/2000/svg"
    xmlns:xlink="http://www.w3.org/1999/xlink" x="0px" y="0px"
	 viewBox="0 0 24 24" style="enable-background:new 0 0 24 24;" xml:space="preserve">
    <path d="M17,13.6h0.4c1.6,0,3.1-0.8,4-2l0.4,7.2c0.1,1.7-1.2,3.1-2.8,3.2c-0.1,0-0.1,0-0.2,0H5.2c-1.7,0-3-1.3-3-3
	c0-0.1,0-0.1,0-0.2l0.4-7.2c0.9,1.2,2.4,2,4,2H7V15h2v-1.4h6V15h2V13.6z M7,16v2h2v-2H7z M15,16v2h2v-2H15z M15,11.6H9V9H7v2.6H6.6
	c-1.7,0-3-1.3-3-3V5c0-1.7,1.3-3,3-3h10.8c1.7,0,3,1.3,3,3v3.6c0,1.7-1.3,3-3,3H17V9h-2V11.6z"/>
</svg>
